src/assets/img/html.svg

<svg width="68" height="75" viewBox="0 0 68 75" fill="none" xmlns="http://www.w3.org/2000/svg">
<path d="M34 60.6675L51.4533 55.9575L53.8069 30.54H22.7649L21.9942 22.0875H54.5813L55.4389 13.7962H12.5611L14.9638 38.8388H44.506L43.52 49.5863L34 52.0875L24.48 49.5863L23.8831 42.6712H15.3076L16.5504 55.9613L34 60.6675ZM0 0H68L61.8687 67.5L34 75L6.13133 67.5L0 0Z" fill="#e56027"/>
</svg>

<svg width="68" height="75" fill="none" xmlns="http://www.w3.org/2000/svg"><path d="m34 60.667 17.453-4.71 2.354-25.417H22.765l-.77-8.453H54.58l.858-8.29H12.56l2.403 25.042h29.542l-.986 10.747L34 52.088l-9.52-2.502-.597-6.915h-8.575l1.242 13.29L34 60.667ZM0 0h68l-6.131 67.5L34 75 6.131 67.5 0 0Z" fill="#e56027"/></svg>
